help/assets/icons/CheckmarkCircle.svg

<svg height="18" viewBox="0 0 18 18" width="18" xmlns="http://www.w3.org/2000/svg"><path d="m0 0h18v18h-18z" fill="#ff13dc" opacity="0"/><path d="m9 1a8 8 0 1 0 8 8 8 8 0 0 0 -8-8zm5.333 4.54-6.324 8.1305a.603.603 0 0 1 -.4375.2305h-.0365a.6.6 0 0 1 -.4245-.1755l-3.8925-3.8965a.6.6 0 0 1 -.00147-.84853l.00147-.00147.663-.6625a.6.6 0 0 1 .84853-.0015l.00147.0015 2.669 2.6745 5.257-6.7545a.6.6 0 0 1 .8419-.10586l.0011.00086.7275.5685a.6.6 0 0 1 .1055.84z" fill="#464646"/></svg>

<svg xmlns:xlink="http://www.w3.org/1999/xlink" xmlns="http://www.w3.org/2000/svg" height="18" viewBox="0 0 18 18" width="18">
  <defs>
    <style>
      .fill {
        fill: #464646;
      }
    </style>
  </defs>
  <title>S CheckmarkCircle 18 N</title>
  <rect id="Canvas" fill="#ff13dc" opacity="0" width="18" height="18"/><path class="fill" d="M9,1a8,8,0,1,0,8,8A8,8,0,0,0,9,1Zm5.333,4.54L8.009,13.6705a.603.603,0,0,1-.4375.2305H7.535a.6.6,0,0,1-.4245-.1755L3.218,9.829a.6.6,0,0,1-.00147-.84853L3.218,8.979l.663-.6625A.6.6,0,0,1,4.72953,8.315L4.731,8.3165,7.4,10.991l5.257-6.7545a.6.6,0,0,1,.8419-.10586L13.5,4.1315l.7275.5685A.6.6,0,0,1,14.333,5.54Z"/>
</svg>
